postman.svg

<?xml version="1.0" encoding="UTF-8"?>
<svg viewBox="0 0 24 24" version="1.1" xmlns="http://www.w3.org/2000/svg" xmlns:xlink="http://www.w3.org/1999/xlink">
    <title>Postman</title>
    <path d="M13.5284182,0.0977475603 C11.1743194,-0.204560264 8.78347062,0.198014335 6.65813668,1.25456284 C4.53284025,2.3111106 2.76857863,3.97416851 1.58846923,6.03342902 C0.408364318,8.09272702 -0.13458141,10.4556776 0.0282957833,12.8235032 C0.191172677,15.1913288 1.05255699,17.4577543 2.50351377,19.3359798 C3.95447054,21.2142802 5.92983455,22.6200806 8.17979592,23.3757058 C10.4297198,24.131256 12.8531936,24.202656 15.1437674,23.5809058 C17.4342663,22.9590807 19.4890403,21.6720054 21.0480645,19.8824299 C22.6070887,18.0927795 23.6003882,15.8811039 23.902413,13.5269284 C24.3073378,10.3704776 23.4419133,7.1824293 21.4964142,4.66401868 C19.5509902,2.14560056 16.6848667,0.50308591 13.5284182,0.0977475603 Z" fill="#FF6C37"/>
        <path d="M5.91687456,17.7059294 L7.06046648,18.8495297 L5.02047501,18.7091296 C5.01164751,18.7085296 5.00323251,18.7051546 4.99636252,18.6996046 C4.98950002,18.6939796 4.98450502,18.6864796 4.98207502,18.6779296 C4.97894753,18.6698296 4.97819003,18.6610546 4.97988503,18.6525046 C4.98158752,18.6440296 4.98567502,18.6362296 4.99167502,18.6299296 L5.91687456,17.7059294 Z M11.6587442,13.3751283 L12.4987438,14.2151285 C11.2471444,15.3047288 9.54194524,16.3955291 7.4275613,17.4551293 C7.37635132,17.4816793 7.33544634,17.5245043 7.31132636,17.5768543 C7.28719887,17.6292044 7.28122887,17.6881544 7.29436137,17.7443294 L7.49716126,18.6107296 C7.50269626,18.6308296 7.50104626,18.6522796 7.49248877,18.6713296 C7.48395377,18.6903796 7.46905878,18.7058296 7.45036129,18.7151296 C7.4324663,18.7260046 7.41135381,18.7304296 7.39059382,18.7275796 C7.36983383,18.7247296 7.35067884,18.7148296 7.33636134,18.6995296 L6.13036945,17.4935293 L9.85874508,13.7627284 L11.6587442,13.3751283 Z M16.6556167,9.05767726 C16.4408168,10.3680776 14.6900177,12.145278 12.7172186,14.0112785 L11.921619,13.2168783 L16.6016167,9.11047727 L16.6556167,9.05767726 Z M10.9496945,12.6696031 L11.4008943,13.1208033 L10.3604948,13.3464033 C10.3537448,13.3485033 10.3465448,13.3480533 10.3400948,13.3452033 C10.3337198,13.3423533 10.3285448,13.3371783 10.3256948,13.3308033 C10.3211948,13.3254033 10.3187198,13.3186533 10.3187198,13.3116033 C10.3187198,13.3046283 10.3211948,13.2978033 10.3256948,13.2924033 L10.9496945,12.6696031 Z M16.029142,7.85525552 C16.059367,7.85670196 16.089442,7.86030196 16.1191419,7.86607697 L16.1419419,7.86607697 C16.2551169,7.88880197 16.3589168,7.94467699 16.4402918,8.02642701 C16.5216667,8.10825203 16.5769417,8.21242705 16.5991417,8.32567708 C16.6051417,8.34007708 16.6051417,8.34727708 16.6051417,8.36887709 L16.6051417,8.47327712 C16.6031167,8.50350212 16.5990667,8.53350213 16.5931417,8.56327714 C16.5895417,8.57767714 16.5811417,8.59207714 16.5811417,8.60647715 C16.5756667,8.62642715 16.5688417,8.64607716 16.5607417,8.66527716 C16.5547417,8.67967717 16.5487417,8.69407717 16.5415417,8.70847717 C16.5287917,8.73375218 16.5143167,8.75820219 16.4983418,8.78167719 L16.4779418,8.8080772 C16.4564918,8.8359022 16.4324168,8.86162721 16.4059418,8.88487722 L11.7259441,12.9924032 L11.1787444,12.4452031 L15.5983422,8.02447701 C15.6236172,7.999802 15.6509172,7.97730199 15.6799422,7.95727699 L15.7063421,7.94047698 C15.7285421,7.92652698 15.7517921,7.91452698 15.7759421,7.90447698 L15.8011421,7.89247697 C15.8332421,7.88047697 15.8660921,7.87087697 15.8995421,7.86367697 L15.910342,7.86367697 C15.940792,7.85782696 15.971767,7.85497696 16.002742,7.85525552 L16.029142,7.85525552 Z M9.84074509,11.5499279 L10.6483447,12.3683281 L8.72834565,12.7823282 C8.71814565,12.7851032 8.70727066,12.7842032 8.69767066,12.7797782 C8.68807067,12.7754282 8.68019567,12.7678532 8.67554567,12.7583282 C8.67044568,12.7486532 8.66909568,12.7374032 8.67172067,12.7267532 L8.67844255,12.7120532 L9.84074509,11.5499279 Z M15.918742,7.56000189 C15.7181171,7.5798019 15.5301672,7.66740192 15.3859423,7.80840195 L10.9543445,12.240003 L10.047145,11.3376028 C14.2807429,7.11720178 15.1351424,6.96000174 15.918742,7.56000189 Z M17.6660912,4.51446706 C18.075816,4.51317114 18.4735408,4.65253618 18.7928906,4.90927624 L17.2028914,6.49807663 C17.1889414,6.51201163 17.1778414,6.52856414 17.1702664,6.54678164 C17.1626914,6.56500665 17.1587914,6.58454415 17.1587914,6.60427666 C17.1587914,6.62400916 17.1626914,6.64353917 17.1702664,6.66176417 C17.1778414,6.67998918 17.1889414,6.69654168 17.2028914,6.71047668 L18.4196908,7.92727698 C18.1768409,8.03970201 17.911941,8.09625202 17.6444162,8.09272702 C17.3768163,8.08920202 17.1134914,8.02575201 16.8737166,7.90695198 C16.6339417,7.78815195 16.4238668,7.61715191 16.2589419,7.40645435 C16.094092,7.1957493 15.978517,6.95073924 15.920767,6.68946168 C15.8630921,6.42818411 15.8647421,6.15729905 15.925642,5.89674148 C15.986467,5.63618392 16.1049669,5.39259136 16.2724419,5.18390381 C16.4399168,4.97520876 16.6520167,4.80673622 16.8932166,4.69088369 C17.1344164,4.57503116 17.3984913,4.51474614 17.6660912,4.51446706 Z M19.0112155,5.11560129 C19.3093403,5.45871138 19.4666903,5.90192398 19.4515403,6.3562291 C19.4363903,6.81054171 19.2499404,7.24230181 18.9296155,7.56480189 C18.8560406,7.64002691 18.7757156,7.70835193 18.6896157,7.76880194 L17.5208162,6.60000166 L19.0112155,5.11560129 Z M18.9176155,5.98685401 C18.8977405,5.98732651 18.8782406,5.99203651 18.8603156,6.00067651 C18.8424656,6.00931651 18.8266406,6.02168401 18.8138906,6.03694652 C18.8012156,6.05221652 18.7919156,6.07002153 18.7866656,6.08917653 C18.7814156,6.10833154 18.7802906,6.12838654 18.7834406,6.14799904 C18.7865906,6.16761155 18.7938656,6.18633155 18.8048156,6.20288406 C18.8406656,6.27505658 18.8549156,6.3560566 18.8457656,6.43611162 C18.8366156,6.51617414 18.8044406,6.59187915 18.7532156,6.65408417 C18.7364156,6.67440917 18.7256906,6.69909918 18.7223906,6.72527419 C18.7190156,6.75144919 18.7232156,6.7780367 18.7343906,6.80193171 C18.7455656,6.82583421 18.7633406,6.84605422 18.7856156,6.86024422 C18.8078156,6.87443422 18.8336906,6.88200922 18.8600156,6.88208422 C18.8804156,6.88186672 18.9005155,6.87725422 18.9189655,6.86855422 C18.9374155,6.85985422 18.9536905,6.84727672 18.9668155,6.83168421 C19.0517905,6.72841669 19.1051154,6.60284416 19.1204154,6.47001912 C19.1357154,6.33720159 19.1123904,6.20277906 19.0532155,6.08288403 C19.0470655,6.06399902 19.0369405,6.04665152 19.0235155,6.03200402 C19.0101655,6.01735651 18.9937405,6.00574651 18.9754405,5.99796151 C18.9572155,5.99017651 18.9374905,5.98638901 18.9176155,5.98685401 Z" fill="#FFFFFF"/>
</svg>

<svg viewBox="0 0 24 24" xmlns="http://www.w3.org/2000/svg"><path d="M13.528.098a12 12 0 1 0-3.056 23.804A12 12 0 0 0 13.528.098Z" fill="#FF6C37"/><path d="M5.917 17.706 7.06 18.85l-2.04-.14a.043.043 0 0 1-.038-.032.046.046 0 0 1 .01-.048l.925-.924Zm5.742-4.33.84.84c-1.252 1.089-2.957 2.18-5.071 3.24a.26.26 0 0 0-.134.288l.203.867a.09.09 0 0 1-.047.104.091.091 0 0 1-.114-.015L6.13 17.494l3.729-3.731 1.8-.388Zm4.997-4.318c-.215 1.31-1.966 3.087-3.939 4.953l-.795-.794 4.68-4.107.054-.052ZM10.95 12.67l.45.45-1.04.226a.029.029 0 0 1-.035-.016.03.03 0 0 1 0-.038l.625-.622Zm5.08-4.815c.03.002.06.005.09.011h.022a.583.583 0 0 1 .463.503v.104a.7.7 0 0 1-.012.09c-.003.015-.012.03-.012.043a.474.474 0 0 1-.04.102.653.653 0 0 1-.043.074l-.02.026a.545.545 0 0 1-.072.077l-4.68 4.107-.547-.547 4.42-4.42a.625.625 0 0 1 .08-.068l.027-.017a.47.47 0 0 1 .07-.036l.025-.012a.704.704 0 0 1 .099-.028h.01a.468.468 0 0 1 .093-.009h.026ZM9.84 11.55l.808.818-1.92.414a.046.046 0 0 1-.053-.024.045.045 0 0 1-.003-.031l.006-.015 1.163-1.162Zm6.079-3.99a.887.887 0 0 0-.533.248l-4.432 4.432-.907-.902c4.234-4.22 5.088-4.378 5.872-3.778Zm1.747-3.046a1.79 1.79 0 0 1 1.127.395l-1.59 1.59a.15.15 0 0 0 0 .211l1.217 1.217a1.79 1.79 0 1 1-.754-3.413Zm1.345.602a1.8 1.8 0 0 1-.321 2.653L17.52 6.6l1.491-1.484Zm-.093.87a.14.14 0 0 0-.113.217.418.418 0 0 1-.052.451.14.14 0 0 0 .214.178.694.694 0 0 0 .057-.8.138.138 0 0 0-.106-.045Z" fill="#FFF"/></svg>
